build/img/advantage_2.svg

<svg viewBox="0 0 72 75" fill="none" xmlns="http://www.w3.org/2000/svg">
<path d="M32.8999 7.17432L16.9526 52H6.58691L22.6035 9.67041H2.35742V1.52344H32.8999V7.17432ZM68.5386 31.1299C68.5386 38.1097 67.2674 43.4486 64.7251 47.1465C62.2059 50.8444 58.6004 52.6934 53.9087 52.6934C49.2632 52.6934 45.6693 50.9022 43.127 47.3198C40.6077 43.7144 39.3019 38.5604 39.2095 31.8579V22.3242C39.2095 15.3675 40.4691 10.0518 42.9883 6.37695C45.5075 2.67904 49.1245 0.830078 53.8394 0.830078C58.5542 0.830078 62.1712 2.65592 64.6904 6.30762C67.2096 9.95931 68.4924 15.1711 68.5386 21.9429V31.1299ZM58.6929 20.9028C58.6929 16.9276 58.3 13.9461 57.5142 11.9585C56.7284 9.97087 55.5034 8.97705 53.8394 8.97705C50.7192 8.97705 49.1014 12.6172 48.9858 19.8975V32.4819C48.9858 36.5496 49.3787 39.5773 50.1646 41.5649C50.9735 43.5526 52.2215 44.5464 53.9087 44.5464C55.5034 44.5464 56.6821 43.6219 57.4448 41.7729C58.2306 39.9009 58.6466 37.0465 58.6929 33.21V20.9028Z" fill="url(#paint0_linear)"/>
<path d="M4.53223 72.3252L6.51465 66.6035H8.01855V74H6.81543V68.9004L4.94922 74H4.12207L2.21484 68.7773V74H1.01172V66.6035H2.57031L4.53223 72.3252ZM13.7607 74C13.6878 73.8405 13.6354 73.5716 13.6035 73.1934C13.1751 73.8223 12.6283 74.1367 11.9629 74.1367C11.293 74.1367 10.7689 73.9499 10.3906 73.5762C10.0169 73.1979 9.83008 72.667 9.83008 71.9834C9.83008 71.2314 10.0853 70.6344 10.5957 70.1924C11.1061 69.7503 11.8057 69.5247 12.6943 69.5156H13.583V68.7295C13.583 68.2874 13.485 67.973 13.2891 67.7861C13.0931 67.5993 12.7946 67.5059 12.3936 67.5059C12.029 67.5059 11.7327 67.6152 11.5049 67.834C11.277 68.0482 11.1631 68.3216 11.1631 68.6543H9.95312C9.95312 68.276 10.0648 67.916 10.2881 67.5742C10.5114 67.2279 10.8122 66.9567 11.1904 66.7607C11.5687 66.5648 11.9902 66.4668 12.4551 66.4668C13.2116 66.4668 13.7858 66.6559 14.1777 67.0342C14.5742 67.4079 14.777 67.9548 14.7861 68.6748V72.4072C14.7907 72.9769 14.8682 73.4714 15.0186 73.8906V74H13.7607ZM12.1475 73.0361C12.4437 73.0361 12.7262 72.9541 12.9951 72.79C13.264 72.626 13.46 72.4209 13.583 72.1748V70.4111H12.8994C12.3252 70.4202 11.8717 70.5501 11.5391 70.8008C11.2064 71.0469 11.04 71.3932 11.04 71.8398C11.04 72.2591 11.1243 72.5645 11.293 72.7559C11.4616 72.9427 11.7464 73.0361 12.1475 73.0361ZM17.9922 66.6035V72.9678H20.0771V66.6035H21.2803V72.9678H23.3721V66.6035H24.582V74H16.7754V66.6035H17.9922ZM30.5225 66.6035H31.7256V74H30.5225V68.6064L27.8428 74H26.6328V66.6035H27.8428V72.0039L30.5225 66.6035ZM38.8555 74H37.6523V70.8418H34.9863V74H33.7695V66.6035H34.9863V69.8096H37.6523V66.6035H38.8555V74Z" fill="#2E35AC"/>
<defs>
<linearGradient id="paint0_linear" x1="0" y1="3" x2="31.023" y2="62.4222" gradientUnits="userSpaceOnUse">
<stop stop-color="#D10A42"/>
<stop offset="1" stop-color="#0041CA"/>
</linearGradient>
</defs>
</svg>

<svg viewBox="0 0 72 75" fill="none" xmlns="http://www.w3.org/2000/svg"><path d="M32.9 7.174L16.953 52H6.587L22.604 9.67H2.357V1.523H32.9v5.651zM68.539 31.13c0 6.98-1.272 12.319-3.814 16.017-2.52 3.697-6.125 5.546-10.816 5.546-4.646 0-8.24-1.79-10.782-5.373-2.52-3.606-3.825-8.76-3.918-15.462v-9.534c0-6.957 1.26-12.272 3.78-15.947C45.507 2.679 49.124.83 53.838.83c4.715 0 8.332 1.826 10.851 5.478 2.52 3.651 3.802 8.863 3.849 15.635v9.187zm-9.846-10.227c0-3.975-.393-6.957-1.179-8.944-.786-1.988-2.01-2.982-3.675-2.982-3.12 0-4.738 3.64-4.853 10.92v12.585c0 4.068.393 7.095 1.179 9.083.809 1.988 2.056 2.981 3.744 2.981 1.594 0 2.773-.924 3.536-2.773.786-1.872 1.202-4.727 1.248-8.563V20.903z" fill="url(#paint0_linear)"/><path d="M4.532 72.325l1.983-5.722h1.504V74H6.815v-5.1L4.95 74h-.827l-1.907-5.223V74H1.012v-7.397H2.57l1.962 5.722zM13.761 74c-.073-.16-.126-.428-.157-.807-.429.63-.976.944-1.641.944-.67 0-1.194-.187-1.572-.56-.374-.38-.56-.91-.56-1.594 0-.752.254-1.349.765-1.79.51-.443 1.21-.668 2.098-.677h.889v-.787c0-.442-.098-.756-.294-.943-.196-.187-.494-.28-.895-.28-.365 0-.661.11-.89.328a1.076 1.076 0 00-.34.82h-1.21c0-.378.11-.738.334-1.08.223-.346.524-.617.902-.813a2.71 2.71 0 011.265-.294c.757 0 1.33.189 1.723.567.396.374.599.92.608 1.64v3.733c.005.57.082 1.064.233 1.484V74H13.76zm-1.613-.964c.296 0 .578-.082.847-.246.269-.164.465-.37.588-.615V70.41h-.684c-.574.01-1.027.14-1.36.39-.333.246-.499.592-.499 1.039 0 .42.084.724.253.916.169.187.453.28.855.28zm5.844-6.433v6.365h2.085v-6.365h1.203v6.365h2.092v-6.365h1.21V74h-7.807v-7.397h1.217zm12.53 0h1.204V74h-1.203v-5.394L27.843 74h-1.21v-7.397h1.21v5.4l2.68-5.4zM38.856 74h-1.204v-3.158h-2.666V74H33.77v-7.397h1.216v3.207h2.666v-3.207h1.203V74z" fill="#2E35AC"/><defs><linearGradient id="paint0_linear" x1="0" y1="3" x2="31.023" y2="62.422" gradientUnits="userSpaceOnUse"><stop stop-color="#D10A42"/><stop offset="1" stop-color="#0041CA"/></linearGradient></defs></svg>
